src/public/favicon.svg

<svg width="16" height="16" viewBox="0 0 16 16" fill="none" xmlns="http://www.w3.org/2000/svg">
<rect width="16" height="16" rx="2" fill="#F0F0F0"/>
<path d="M1.5 4.75H2.78936C3.62164 4.75 4.18377 4.78747 4.47576 4.86242C4.77047 4.93736 4.99423 5.06048 5.14704 5.23178C5.29985 5.40308 5.39536 5.59445 5.43356 5.8059C5.47177 6.01467 5.49087 6.42686 5.49087 7.04246V9.31887C5.49087 9.90236 5.46222 10.2931 5.40491 10.4912C5.35034 10.6866 5.25346 10.8405 5.11429 10.9529C4.97513 11.0626 4.80321 11.1403 4.59855 11.1858C4.39389 11.2286 4.08554 11.25 3.67349 11.25H1.5V4.75ZM3.22324 5.86211V10.1379C3.47156 10.1379 3.62437 10.0897 3.68168 9.99336C3.73898 9.89433 3.76763 9.62801 3.76763 9.19441V6.66909C3.76763 6.37467 3.75808 6.18597 3.73898 6.103C3.71988 6.02002 3.67622 5.9598 3.608 5.92233C3.53978 5.88218 3.41152 5.86211 3.22324 5.86211Z" fill="#00B068"/>
<path d="M6.52645 4.75H9.39987V6.0508H8.24969V7.28335H9.3262V8.51992H8.24969V9.9492H9.51448V11.25H6.52645V4.75Z" fill="#00B068"/>
<path d="M14.5 4.75L13.6241 11.25H11.0085L10.0139 4.75H11.8312C12.0414 6.54061 12.1914 8.0542 12.2815 9.29077C12.3715 8.04082 12.4657 6.93005 12.5639 5.95846L12.6826 4.75H14.5Z" fill="#00B068"/>
</svg>

<svg xmlns="http://www.w3.org/2000/svg" width="16" height="16" fill="none"><rect width="16" height="16" fill="#F0F0F0" rx="2"/><path fill="#2807E4" d="M1.5 4.75h1.29c.832 0 1.394.037 1.686.112.294.075.518.198.671.37.153.171.248.362.287.574.038.209.057.62.057 1.236V9.32c0 .583-.029.974-.086 1.172a.877.877 0 0 1-.29.462c-.14.11-.312.187-.516.233-.205.043-.513.064-.926.064H1.5v-6.5Zm1.723 1.112v4.276c.249 0 .401-.048.459-.145.057-.099.086-.365.086-.799V6.67c0-.294-.01-.483-.029-.566a.262.262 0 0 0-.131-.18c-.068-.04-.196-.06-.385-.06ZM6.526 4.75H9.4v1.3H8.25v1.233h1.076V8.52H8.25v1.43h1.264v1.3H6.526v-6.5ZM14.5 4.75l-.876 6.5h-2.616l-.994-6.5h1.817c.21 1.79.36 3.304.45 4.54.09-1.25.185-2.36.283-3.332l.119-1.208H14.5Z"/></svg>
